X: 1
T: Dancing On A Sixpence
R: reel
M: 4/4
L: 1/8
K: Edor
|:BEEB cBAE|FEED B,EA,B,|DFAF ABDF|Adfa afed|
BEEB cBAE|FEED B,EA,B,|DFAF ABDF|1 AdfF RE3A:|2 AdfF RE3f||
|:eBRB2 ABdf|eBfBg2fe|dfab afdf|gefd BAFA|
[1Beed ABdf|eBfBRg2fe|d/e/f Bd AdfA|FEED EFGB:|
[2RB3A B/c/dcA|FEED B,EA,B,|DFAF ABDF|AdfF E3A||

composer: Liz Carroll
